X: 20
T:Hamish
% Nottingham Music Database
S:Hamish
M:4/4
L:1/8
R:Hornpipe
K:D
A2/3B2/3c2/3|"D"dcdf "A7"ec A2/3B2/3c2/3|"G"dBGB "D"AFDF|
"Em"EGFA GBgf|"E7"edcB "A7"AB c2/3B2/3A2/3|"D"dcdf "Em"e^deg|
"D"f^efg afdA|"G"B2/3c2/3d2/3 cB "A7"A2/3B2/3A2/3G2/3F2/3E2/3|"D"DdAF D2 E2|
|"A"A^GAc ecAc|"A"edcB "D"Adfa|"G"gfeg "D"fedf|
"E7"e2/3f2/3e2/3d2/3c2/3B2/3 "A7"A2/3B2/3A2/3G2/3F2/3E2/3|"D"DFAd "Em"EGBe|
"D"FAdf afdA|"G"B2/3c2/3d2/3cB "A7"A2/3B2/3A2/3G2/3F2/3E2/3|"D"DdAF D2||


